colour/io/luts/tests/resources/iridas_cube/ACES_Proxy_10_to_ACES.cube
TITLE "ACES Proxy 10 to ACES"
LUT_1D_SIZE 32
0.0004883 0.0004883 0.0004883
0.0007714 0.0007714 0.0007714
0.001219 0.001219 0.001219
0.001926 0.001926 0.001926
0.003044 0.003044 0.003044
0.004809 0.004809 0.004809
0.007599 0.007599 0.007599
0.01201 0.01201 0.01201
0.01897 0.01897 0.01897
0.02998 0.02998 0.02998
0.04737 0.04737 0.04737
0.07484 0.07484 0.07484
0.1183 0.1183 0.1183
0.1869 0.1869 0.1869
0.2952 0.2952 0.2952
0.4665 0.4665 0.4665
0.7371 0.7371 0.7371
1.165 1.165 1.165
1.84 1.84 1.84
2.908 2.908 2.908
4.595 4.595 4.595
7.26 7.26 7.26
11.47 11.47 11.47
18.13 18.13 18.13
28.64 28.64 28.64
45.25 45.25 45.25
71.51 71.51 71.51
113 113 113
178.5 178.5 178.5
282.1 282.1 282.1
445.7 445.7 445.7
704.3 704.3 704.3