colour/io/luts/tests/resources/iridas_cube/Colour_Correct.cube
TITLE "Generated by Foundry::LUT"
LUT_3D_SIZE 4
0.000000 0.000000 0.000000
0.398947 -0.017706 -0.017706
0.797894 -0.035412 -0.035412
1.196841 -0.053117 -0.053117
-0.026231 0.377102 -0.026231
0.294597 0.294597 0.069582
0.633333 0.316667 0.000000
1.038439 0.310899 -0.052870
-0.052463 0.754204 -0.052463
0.349416 0.657749 0.041083
0.589195 0.589195 0.139164
0.891318 0.619823 0.076833
-0.078694 1.131306 -0.078694
0.344991 1.050213 -0.007621
0.663432 0.930188 0.129920
0.883792 0.883792 0.208746
0.000000 0.000000 0.416653
0.333333 0.000000 0.333333
0.752767 -0.028479 0.362144
1.162588 -0.050372 0.353948
0.019686 0.244702 0.244702
0.416655 0.416655 0.416655
0.732278 0.315626 0.315626
1.131225 0.297920 0.297920
0.000000 0.616667 0.308333
0.340435 0.743769 0.340435
0.594601 0.594601 0.369586
0.950000 0.633333 0.316667
-0.035927 1.021908 0.316685
0.314204 1.120871 0.314204
0.682749 0.991082 0.374416
0.889199 0.889199 0.439168
0.000000 0.000000 0.833306
0.390623 0.000000 0.781246
0.666667 0.000000 0.666667
1.089003 -0.031363 0.715547
0.014327 0.330993 0.647660
0.416655 0.416655 0.833308
0.666667 0.333333 0.666667
1.086101 0.304855 0.695478
0.039372 0.489403 0.489403
0.269700 0.494715 0.494715
0.833311 0.833311 0.833311
1.065610 0.648957 0.648957
0.030904 0.831171 0.564415
0.308333 0.925000 0.616667
0.707102 1.110435 0.707102
0.894606 0.894606 0.669590
0.000001 0.000001 1.249959
0.404320 0.000000 1.212960
0.746911 0.000000 1.120366
1.000000 0.000000 1.000000
0.009022 0.372791 1.100331
0.416656 0.416656 1.249961
0.781246 0.390623 1.171869
1.000000 0.333333 1.000000
0.035773 0.578763 0.850258
0.347660 0.664327 0.980993
0.833311 0.833311 1.249963
1.000000 0.666667 1.000000
0.059059 0.734105 0.734105
0.289386 0.739417 0.739417
0.519714 0.744729 0.744729
1.249966 1.249966 1.249966
