colour/io/luts/tests/resources/iridas_cube/oetf_reverse_sRGB_3D.cube
TITLE "Unity 8"
# Generated by "Colour 0.3.11".
# "colour.models.oetf_reverse_sRGB".
LUT_3D_SIZE 8
DOMAIN_MIN -0.1000000 -0.1500000 -0.2000000
DOMAIN_MAX 1.5000000 2.0000000 3.0000000
-0.0077399 -0.0116099 -0.0154799
0.0150427 -0.0116099 -0.0154799
0.1047873 -0.0116099 -0.0154799
0.3021264 -0.0116099 -0.0154799
0.6283248 -0.0116099 -0.0154799
1.1002822 -0.0116099 -0.0154799
1.7323490 -0.0116099 -0.0154799
2.5371552 -0.0116099 -0.0154799
-0.0077399 0.0212864 -0.0154799
0.0150427 0.0212864 -0.0154799
0.1047873 0.0212864 -0.0154799
0.3021264 0.0212864 -0.0154799
0.6283248 0.0212864 -0.0154799
1.1002822 0.0212864 -0.0154799
1.7323490 0.0212864 -0.0154799
2.5371552 0.0212864 -0.0154799
-0.0077399 0.1824607 -0.0154799
0.0150427 0.1824607 -0.0154799
0.1047873 0.1824607 -0.0154799
0.3021264 0.1824607 -0.0154799
0.6283248 0.1824607 -0.0154799
1.1002822 0.1824607 -0.0154799
1.7323490 0.1824607 -0.0154799
2.5371552 0.1824607 -0.0154799
-0.0077399 0.5565278 -0.0154799
0.0150427 0.5565278 -0.0154799
0.1047873 0.5565278 -0.0154799
0.3021264 0.5565278 -0.0154799
0.6283248 0.5565278 -0.0154799
1.1002822 0.5565278 -0.0154799
1.7323490 0.5565278 -0.0154799
2.5371552 0.5565278 -0.0154799
-0.0077399 1.1881504 -0.0154799
0.0150427 1.1881504 -0.0154799
0.1047873 1.1881504 -0.0154799
0.3021264 1.1881504 -0.0154799
0.6283248 1.1881504 -0.0154799
1.1002822 1.1881504 -0.0154799
1.7323490 1.1881504 -0.0154799
2.5371552 1.1881504 -0.0154799
-0.0077399 2.1124234 -0.0154799
0.0150427 2.1124234 -0.0154799
0.1047873 2.1124234 -0.0154799
0.3021264 2.1124234 -0.0154799
0.6283248 2.1124234 -0.0154799
1.1002822 2.1124234 -0.0154799
1.7323490 2.1124234 -0.0154799
2.5371552 2.1124234 -0.0154799
-0.0077399 3.3589871 -0.0154799
0.0150427 3.3589871 -0.0154799
0.1047873 3.3589871 -0.0154799
0.3021264 3.3589871 -0.0154799
0.6283248 3.3589871 -0.0154799
1.1002822 3.3589871 -0.0154799
1.7323490 3.3589871 -0.0154799
2.5371552 3.3589871 -0.0154799
-0.0077399 4.9538458 -0.0154799
0.0150427 4.9538458 -0.0154799
0.1047873 4.9538458 -0.0154799
0.3021264 4.9538458 -0.0154799
0.6283248 4.9538458 -0.0154799
1.1002822 4.9538458 -0.0154799
1.7323490 4.9538458 -0.0154799
2.5371552 4.9538458 -0.0154799
-0.0077399 -0.0116099 0.0537827
0.0150427 -0.0116099 0.0537827
0.1047873 -0.0116099 0.0537827
0.3021264 -0.0116099 0.0537827
0.6283248 -0.0116099 0.0537827
1.1002822 -0.0116099 0.0537827
1.7323490 -0.0116099 0.0537827
2.5371552 -0.0116099 0.0537827
-0.0077399 0.0212864 0.0537827
0.0150427 0.0212864 0.0537827
0.1047873 0.0212864 0.0537827
0.3021264 0.0212864 0.0537827
0.6283248 0.0212864 0.0537827
1.1002822 0.0212864 0.0537827
1.7323490 0.0212864 0.0537827
2.5371552 0.0212864 0.0537827
-0.0077399 0.1824607 0.0537827
0.0150427 0.1824607 0.0537827
0.1047873 0.1824607 0.0537827
0.3021264 0.1824607 0.0537827
0.6283248 0.1824607 0.0537827
1.1002822 0.1824607 0.0537827
1.7323490 0.1824607 0.0537827
2.5371552 0.1824607 0.0537827
-0.0077399 0.5565278 0.0537827
0.0150427 0.5565278 0.0537827
0.1047873 0.5565278 0.0537827
0.3021264 0.5565278 0.0537827
0.6283248 0.5565278 0.0537827
1.1002822 0.5565278 0.0537827
1.7323490 0.5565278 0.0537827
2.5371552 0.5565278 0.0537827
-0.0077399 1.1881504 0.0537827
0.0150427 1.1881504 0.0537827
0.1047873 1.1881504 0.0537827
0.3021264 1.1881504 0.0537827
0.6283248 1.1881504 0.0537827
1.1002822 1.1881504 0.0537827
1.7323490 1.1881504 0.0537827
2.5371552 1.1881504 0.0537827
-0.0077399 2.1124234 0.0537827
0.0150427 2.1124234 0.0537827
0.1047873 2.1124234 0.0537827
0.3021264 2.1124234 0.0537827
0.6283248 2.1124234 0.0537827
1.1002822 2.1124234 0.0537827
1.7323490 2.1124234 0.0537827
2.5371552 2.1124234 0.0537827
-0.0077399 3.3589871 0.0537827
0.0150427 3.3589871 0.0537827
0.1047873 3.3589871 0.0537827
0.3021264 3.3589871 0.0537827
0.6283248 3.3589871 0.0537827
1.1002822 3.3589871 0.0537827
1.7323490 3.3589871 0.0537827
2.5371552 3.3589871 0.0537827
-0.0077399 4.9538458 0.0537827
0.0150427 4.9538458 0.0537827
0.1047873 4.9538458 0.0537827
0.3021264 4.9538458 0.0537827
0.6283248 4.9538458 0.0537827
1.1002822 4.9538458 0.0537827
1.7323490 4.9538458 0.0537827
2.5371552 4.9538458 0.0537827
-0.0077399 -0.0116099 0.4686024
0.0150427 -0.0116099 0.4686024
0.1047873 -0.0116099 0.4686024
0.3021264 -0.0116099 0.4686024
0.6283248 -0.0116099 0.4686024
1.1002822 -0.0116099 0.4686024
1.7323490 -0.0116099 0.4686024
2.5371552 -0.0116099 0.4686024
-0.0077399 0.0212864 0.4686024
0.0150427 0.0212864 0.4686024
0.1047873 0.0212864 0.4686024
0.3021264 0.0212864 0.4686024
0.6283248 0.0212864 0.4686024
1.1002822 0.0212864 0.4686024
1.7323490 0.0212864 0.4686024
2.5371552 0.0212864 0.4686024
-0.0077399 0.1824607 0.4686024
0.0150427 0.1824607 0.4686024
0.1047873 0.1824607 0.4686024
0.3021264 0.1824607 0.4686024
0.6283248 0.1824607 0.4686024
1.1002822 0.1824607 0.4686024
1.7323490 0.1824607 0.4686024
2.5371552 0.1824607 0.4686024
-0.0077399 0.5565278 0.4686024
0.0150427 0.5565278 0.4686024
0.1047873 0.5565278 0.4686024
0.3021264 0.5565278 0.4686024
0.6283248 0.5565278 0.4686024
1.1002822 0.5565278 0.4686024
1.7323490 0.5565278 0.4686024
2.5371552 0.5565278 0.4686024
-0.0077399 1.1881504 0.4686024
0.0150427 1.1881504 0.4686024
0.1047873 1.1881504 0.4686024
0.3021264 1.1881504 0.4686024
0.6283248 1.1881504 0.4686024
1.1002822 1.1881504 0.4686024
1.7323490 1.1881504 0.4686024
2.5371552 1.1881504 0.4686024
-0.0077399 2.1124234 0.4686024
0.0150427 2.1124234 0.4686024
0.1047873 2.1124234 0.4686024
0.3021264 2.1124234 0.4686024
0.6283248 2.1124234 0.4686024
1.1002822 2.1124234 0.4686024
1.7323490 2.1124234 0.4686024
2.5371552 2.1124234 0.4686024
-0.0077399 3.3589871 0.4686024
0.0150427 3.3589871 0.4686024
0.1047873 3.3589871 0.4686024
0.3021264 3.3589871 0.4686024
0.6283248 3.3589871 0.4686024
1.1002822 3.3589871 0.4686024
1.7323490 3.3589871 0.4686024
2.5371552 3.3589871 0.4686024
-0.0077399 4.9538458 0.4686024
0.0150427 4.9538458 0.4686024
0.1047873 4.9538458 0.4686024
0.3021264 4.9538458 0.4686024
0.6283248 4.9538458 0.4686024
1.1002822 4.9538458 0.4686024
1.7323490 4.9538458 0.4686024
2.5371552 4.9538458 0.4686024
-0.0077399 -0.0116099 1.4352763
0.0150427 -0.0116099 1.4352763
0.1047873 -0.0116099 1.4352763
0.3021264 -0.0116099 1.4352763
0.6283248 -0.0116099 1.4352763
1.1002822 -0.0116099 1.4352763
1.7323490 -0.0116099 1.4352763
2.5371552 -0.0116099 1.4352763
-0.0077399 0.0212864 1.4352763
0.0150427 0.0212864 1.4352763
0.1047873 0.0212864 1.4352763
0.3021264 0.0212864 1.4352763
0.6283248 0.0212864 1.4352763
1.1002822 0.0212864 1.4352763
1.7323490 0.0212864 1.4352763
2.5371552 0.0212864 1.4352763
-0.0077399 0.1824607 1.4352763
0.0150427 0.1824607 1.4352763
0.1047873 0.1824607 1.4352763
0.3021264 0.1824607 1.4352763
0.6283248 0.1824607 1.4352763
1.1002822 0.1824607 1.4352763
1.7323490 0.1824607 1.4352763
2.5371552 0.1824607 1.4352763
-0.0077399 0.5565278 1.4352763
0.0150427 0.5565278 1.4352763
0.1047873 0.5565278 1.4352763
0.3021264 0.5565278 1.4352763
0.6283248 0.5565278 1.4352763
1.1002822 0.5565278 1.4352763
1.7323490 0.5565278 1.4352763
2.5371552 0.5565278 1.4352763
-0.0077399 1.1881504 1.4352763
0.0150427 1.1881504 1.4352763
0.1047873 1.1881504 1.4352763
0.3021264 1.1881504 1.4352763
0.6283248 1.1881504 1.4352763
1.1002822 1.1881504 1.4352763
1.7323490 1.1881504 1.4352763
2.5371552 1.1881504 1.4352763
-0.0077399 2.1124234 1.4352763
0.0150427 2.1124234 1.4352763
0.1047873 2.1124234 1.4352763
0.3021264 2.1124234 1.4352763
0.6283248 2.1124234 1.4352763
1.1002822 2.1124234 1.4352763
1.7323490 2.1124234 1.4352763
2.5371552 2.1124234 1.4352763
-0.0077399 3.3589871 1.4352763
0.0150427 3.3589871 1.4352763
0.1047873 3.3589871 1.4352763
0.3021264 3.3589871 1.4352763
0.6283248 3.3589871 1.4352763
1.1002822 3.3589871 1.4352763
1.7323490 3.3589871 1.4352763
2.5371552 3.3589871 1.4352763
-0.0077399 4.9538458 1.4352763
0.0150427 4.9538458 1.4352763
0.1047873 4.9538458 1.4352763
0.3021264 4.9538458 1.4352763
0.6283248 4.9538458 1.4352763
1.1002822 4.9538458 1.4352763
1.7323490 4.9538458 1.4352763
2.5371552 4.9538458 1.4352763
-0.0077399 -0.0116099 3.0700808
0.0150427 -0.0116099 3.0700808
0.1047873 -0.0116099 3.0700808
0.3021264 -0.0116099 3.0700808
0.6283248 -0.0116099 3.0700808
1.1002822 -0.0116099 3.0700808
1.7323490 -0.0116099 3.0700808
2.5371552 -0.0116099 3.0700808
-0.0077399 0.0212864 3.0700808
0.0150427 0.0212864 3.0700808
0.1047873 0.0212864 3.0700808
0.3021264 0.0212864 3.0700808
0.6283248 0.0212864 3.0700808
1.1002822 0.0212864 3.0700808
1.7323490 0.0212864 3.0700808
2.5371552 0.0212864 3.0700808
-0.0077399 0.1824607 3.0700808
0.0150427 0.1824607 3.0700808
0.1047873 0.1824607 3.0700808
0.3021264 0.1824607 3.0700808
0.6283248 0.1824607 3.0700808
1.1002822 0.1824607 3.0700808
1.7323490 0.1824607 3.0700808
2.5371552 0.1824607 3.0700808
-0.0077399 0.5565278 3.0700808
0.0150427 0.5565278 3.0700808
0.1047873 0.5565278 3.0700808
0.3021264 0.5565278 3.0700808
0.6283248 0.5565278 3.0700808
1.1002822 0.5565278 3.0700808
1.7323490 0.5565278 3.0700808
2.5371552 0.5565278 3.0700808
-0.0077399 1.1881504 3.0700808
0.0150427 1.1881504 3.0700808
0.1047873 1.1881504 3.0700808
0.3021264 1.1881504 3.0700808
0.6283248 1.1881504 3.0700808
1.1002822 1.1881504 3.0700808
1.7323490 1.1881504 3.0700808
2.5371552 1.1881504 3.0700808
-0.0077399 2.1124234 3.0700808
0.0150427 2.1124234 3.0700808
0.1047873 2.1124234 3.0700808
0.3021264 2.1124234 3.0700808
0.6283248 2.1124234 3.0700808
1.1002822 2.1124234 3.0700808
1.7323490 2.1124234 3.0700808
2.5371552 2.1124234 3.0700808
-0.0077399 3.3589871 3.0700808
0.0150427 3.3589871 3.0700808
0.1047873 3.3589871 3.0700808
0.3021264 3.3589871 3.0700808
0.6283248 3.3589871 3.0700808
1.1002822 3.3589871 3.0700808
1.7323490 3.3589871 3.0700808
2.5371552 3.3589871 3.0700808
-0.0077399 4.9538458 3.0700808
0.0150427 4.9538458 3.0700808
0.1047873 4.9538458 3.0700808
0.3021264 4.9538458 3.0700808
0.6283248 4.9538458 3.0700808
1.1002822 4.9538458 3.0700808
1.7323490 4.9538458 3.0700808
2.5371552 4.9538458 3.0700808
-0.0077399 -0.0116099 5.4643058
0.0150427 -0.0116099 5.4643058
0.1047873 -0.0116099 5.4643058
0.3021264 -0.0116099 5.4643058
0.6283248 -0.0116099 5.4643058
1.1002822 -0.0116099 5.4643058
1.7323490 -0.0116099 5.4643058
2.5371552 -0.0116099 5.4643058
-0.0077399 0.0212864 5.4643058
0.0150427 0.0212864 5.4643058
0.1047873 0.0212864 5.4643058
0.3021264 0.0212864 5.4643058
0.6283248 0.0212864 5.4643058
1.1002822 0.0212864 5.4643058
1.7323490 0.0212864 5.4643058
2.5371552 0.0212864 5.4643058
-0.0077399 0.1824607 5.4643058
0.0150427 0.1824607 5.4643058
0.1047873 0.1824607 5.4643058
0.3021264 0.1824607 5.4643058
0.6283248 0.1824607 5.4643058
1.1002822 0.1824607 5.4643058
1.7323490 0.1824607 5.4643058
2.5371552 0.1824607 5.4643058
-0.0077399 0.5565278 5.4643058
0.0150427 0.5565278 5.4643058
0.1047873 0.5565278 5.4643058
0.3021264 0.5565278 5.4643058
0.6283248 0.5565278 5.4643058
1.1002822 0.5565278 5.4643058
1.7323490 0.5565278 5.4643058
2.5371552 0.5565278 5.4643058
-0.0077399 1.1881504 5.4643058
0.0150427 1.1881504 5.4643058
0.1047873 1.1881504 5.4643058
0.3021264 1.1881504 5.4643058
0.6283248 1.1881504 5.4643058
1.1002822 1.1881504 5.4643058
1.7323490 1.1881504 5.4643058
2.5371552 1.1881504 5.4643058
-0.0077399 2.1124234 5.4643058
0.0150427 2.1124234 5.4643058
0.1047873 2.1124234 5.4643058
0.3021264 2.1124234 5.4643058
0.6283248 2.1124234 5.4643058
1.1002822 2.1124234 5.4643058
1.7323490 2.1124234 5.4643058
2.5371552 2.1124234 5.4643058
-0.0077399 3.3589871 5.4643058
0.0150427 3.3589871 5.4643058
0.1047873 3.3589871 5.4643058
0.3021264 3.3589871 5.4643058
0.6283248 3.3589871 5.4643058
1.1002822 3.3589871 5.4643058
1.7323490 3.3589871 5.4643058
2.5371552 3.3589871 5.4643058
-0.0077399 4.9538458 5.4643058
0.0150427 4.9538458 5.4643058
0.1047873 4.9538458 5.4643058
0.3021264 4.9538458 5.4643058
0.6283248 4.9538458 5.4643058
1.1002822 4.9538458 5.4643058
1.7323490 4.9538458 5.4643058
2.5371552 4.9538458 5.4643058
-0.0077399 -0.0116099 8.6950230
0.0150427 -0.0116099 8.6950230
0.1047873 -0.0116099 8.6950230
0.3021264 -0.0116099 8.6950230
0.6283248 -0.0116099 8.6950230
1.1002822 -0.0116099 8.6950230
1.7323490 -0.0116099 8.6950230
2.5371552 -0.0116099 8.6950230
-0.0077399 0.0212864 8.6950230
0.0150427 0.0212864 8.6950230
0.1047873 0.0212864 8.6950230
0.3021264 0.0212864 8.6950230
0.6283248 0.0212864 8.6950230
1.1002822 0.0212864 8.6950230
1.7323490 0.0212864 8.6950230
2.5371552 0.0212864 8.6950230
-0.0077399 0.1824607 8.6950230
0.0150427 0.1824607 8.6950230
0.1047873 0.1824607 8.6950230
0.3021264 0.1824607 8.6950230
0.6283248 0.1824607 8.6950230
1.1002822 0.1824607 8.6950230
1.7323490 0.1824607 8.6950230
2.5371552 0.1824607 8.6950230
-0.0077399 0.5565278 8.6950230
0.0150427 0.5565278 8.6950230
0.1047873 0.5565278 8.6950230
0.3021264 0.5565278 8.6950230
0.6283248 0.5565278 8.6950230
1.1002822 0.5565278 8.6950230
1.7323490 0.5565278 8.6950230
2.5371552 0.5565278 8.6950230
-0.0077399 1.1881504 8.6950230
0.0150427 1.1881504 8.6950230
0.1047873 1.1881504 8.6950230
0.3021264 1.1881504 8.6950230
0.6283248 1.1881504 8.6950230
1.1002822 1.1881504 8.6950230
1.7323490 1.1881504 8.6950230
2.5371552 1.1881504 8.6950230
-0.0077399 2.1124234 8.6950230
0.0150427 2.1124234 8.6950230
0.1047873 2.1124234 8.6950230
0.3021264 2.1124234 8.6950230
0.6283248 2.1124234 8.6950230
1.1002822 2.1124234 8.6950230
1.7323490 2.1124234 8.6950230
2.5371552 2.1124234 8.6950230
-0.0077399 3.3589871 8.6950230
0.0150427 3.3589871 8.6950230
0.1047873 3.3589871 8.6950230
0.3021264 3.3589871 8.6950230
0.6283248 3.3589871 8.6950230
1.1002822 3.3589871 8.6950230
1.7323490 3.3589871 8.6950230
2.5371552 3.3589871 8.6950230
-0.0077399 4.9538458 8.6950230
0.0150427 4.9538458 8.6950230
0.1047873 4.9538458 8.6950230
0.3021264 4.9538458 8.6950230
0.6283248 4.9538458 8.6950230
1.1002822 4.9538458 8.6950230
1.7323490 4.9538458 8.6950230
2.5371552 4.9538458 8.6950230
-0.0077399 -0.0116099 12.8298333
0.0150427 -0.0116099 12.8298333
0.1047873 -0.0116099 12.8298333
0.3021264 -0.0116099 12.8298333
0.6283248 -0.0116099 12.8298333
1.1002822 -0.0116099 12.8298333
1.7323490 -0.0116099 12.8298333
2.5371552 -0.0116099 12.8298333
-0.0077399 0.0212864 12.8298333
0.0150427 0.0212864 12.8298333
0.1047873 0.0212864 12.8298333
0.3021264 0.0212864 12.8298333
0.6283248 0.0212864 12.8298333
1.1002822 0.0212864 12.8298333
1.7323490 0.0212864 12.8298333
2.5371552 0.0212864 12.8298333
-0.0077399 0.1824607 12.8298333
0.0150427 0.1824607 12.8298333
0.1047873 0.1824607 12.8298333
0.3021264 0.1824607 12.8298333
0.6283248 0.1824607 12.8298333
1.1002822 0.1824607 12.8298333
1.7323490 0.1824607 12.8298333
2.5371552 0.1824607 12.8298333
-0.0077399 0.5565278 12.8298333
0.0150427 0.5565278 12.8298333
0.1047873 0.5565278 12.8298333
0.3021264 0.5565278 12.8298333
0.6283248 0.5565278 12.8298333
1.1002822 0.5565278 12.8298333
1.7323490 0.5565278 12.8298333
2.5371552 0.5565278 12.8298333
-0.0077399 1.1881504 12.8298333
0.0150427 1.1881504 12.8298333
0.1047873 1.1881504 12.8298333
0.3021264 1.1881504 12.8298333
0.6283248 1.1881504 12.8298333
1.1002822 1.1881504 12.8298333
1.7323490 1.1881504 12.8298333
2.5371552 1.1881504 12.8298333
-0.0077399 2.1124234 12.8298333
0.0150427 2.1124234 12.8298333
0.1047873 2.1124234 12.8298333
0.3021264 2.1124234 12.8298333
0.6283248 2.1124234 12.8298333
1.1002822 2.1124234 12.8298333
1.7323490 2.1124234 12.8298333
2.5371552 2.1124234 12.8298333
-0.0077399 3.3589871 12.8298333
0.0150427 3.3589871 12.8298333
0.1047873 3.3589871 12.8298333
0.3021264 3.3589871 12.8298333
0.6283248 3.3589871 12.8298333
1.1002822 3.3589871 12.8298333
1.7323490 3.3589871 12.8298333
2.5371552 3.3589871 12.8298333
-0.0077399 4.9538458 12.8298333
0.0150427 4.9538458 12.8298333
0.1047873 4.9538458 12.8298333
0.3021264 4.9538458 12.8298333
0.6283248 4.9538458 12.8298333
1.1002822 4.9538458 12.8298333
1.7323490 4.9538458 12.8298333
2.5371552 4.9538458 12.8298333
