colour/io/luts/tests/resources/iridas_cube/RGB_1_0.5_0.25.cube
TITLE "Generated by Foundry::LUT"
LUT_3D_SIZE 4
0.000000 0.000000 0.000000
0.333333 0.000000 0.000000
0.666667 0.000000 0.000000
1.000000 0.000000 0.000000
0.000000 0.166667 0.000000
0.333333 0.166667 0.000000
0.666667 0.166667 0.000000
1.000000 0.166667 0.000000
0.000000 0.333333 0.000000
0.333333 0.333333 0.000000
0.666667 0.333333 0.000000
1.000000 0.333333 0.000000
0.000000 0.500000 0.000000
0.333333 0.500000 0.000000
0.666667 0.500000 0.000000
1.000000 0.500000 0.000000
0.000000 0.000000 0.083333
0.333333 0.000000 0.083333
0.666667 0.000000 0.083333
1.000000 0.000000 0.083333
0.000000 0.166667 0.083333
0.333333 0.166667 0.083333
0.666667 0.166667 0.083333
1.000000 0.166667 0.083333
0.000000 0.333333 0.083333
0.333333 0.333333 0.083333
0.666667 0.333333 0.083333
1.000000 0.333333 0.083333
0.000000 0.500000 0.083333
0.333333 0.500000 0.083333
0.666667 0.500000 0.083333
1.000000 0.500000 0.083333
0.000000 0.000000 0.166667
0.333333 0.000000 0.166667
0.666667 0.000000 0.166667
1.000000 0.000000 0.166667
0.000000 0.166667 0.166667
0.333333 0.166667 0.166667
0.666667 0.166667 0.166667
1.000000 0.166667 0.166667
0.000000 0.333333 0.166667
0.333333 0.333333 0.166667
0.666667 0.333333 0.166667
1.000000 0.333333 0.166667
0.000000 0.500000 0.166667
0.333333 0.500000 0.166667
0.666667 0.500000 0.166667
1.000000 0.500000 0.166667
0.000000 0.000000 0.250000
0.333333 0.000000 0.250000
0.666667 0.000000 0.250000
1.000000 0.000000 0.250000
0.000000 0.166667 0.250000
0.333333 0.166667 0.250000
0.666667 0.166667 0.250000
1.000000 0.166667 0.250000
0.000000 0.333333 0.250000
0.333333 0.333333 0.250000
0.666667 0.333333 0.250000
1.000000 0.333333 0.250000
0.000000 0.500000 0.250000
0.333333 0.500000 0.250000
0.666667 0.500000 0.250000
1.000000 0.500000 0.250000
