colour/io/luts/tests/resources/sony_spi1d/ExceptionRaising.spi1d
Version 1
From 0.0
Length 2
Components 1
{
 0.0
 1.0
}
