colour/io/luts/tests/resources/sony_spi1d/oetf_reverse_sRGB_1D.spi1d
Version 1
From -0.1000000 1.5000000
Length 16
Components 1
{
 -0.0077399
 0.0005160
 0.0122181
 0.0396819
 0.0871438
 0.1574394
 0.2529501
 0.3757579
 0.5277294
 0.7105665
 0.9258406
 1.1750163
 1.4594687
 1.7804968
 2.1393338
 2.5371552
}
# Generated by "Colour 0.3.11".
# "colour.models.oetf_reverse_sRGB".
