colour/io/luts/tests/resources/resolve_cube/eotf_sRGB_3D.cube
TITLE "sRGB EOTF"
# Generated by "Colour 0.3.11".
# "colour.models.eotf_sRGB".
LUT_3D_SIZE 8
LUT_1D_INPUT_RANGE  -1.0000000 3.0000000
-0.0773994 -0.0773994 -0.0773994
-0.0331712 -0.0773994 -0.0773994
0.0180069 -0.0773994 -0.0773994
0.4686024 -0.0773994 -0.0773994
1.7774650 -0.0773994 -0.0773994
4.1671862 -0.0773994 -0.0773994
7.8050928 -0.0773994 -0.0773994
12.8298333 -0.0773994 -0.0773994
-0.0773994 -0.0331712 -0.0773994
-0.0331712 -0.0331712 -0.0773994
0.0180069 -0.0331712 -0.0773994
0.4686024 -0.0331712 -0.0773994
1.7774650 -0.0331712 -0.0773994
4.1671862 -0.0331712 -0.0773994
7.8050928 -0.0331712 -0.0773994
12.8298333 -0.0331712 -0.0773994
-0.0773994 0.0180069 -0.0773994
-0.0331712 0.0180069 -0.0773994
0.0180069 0.0180069 -0.0773994
0.4686024 0.0180069 -0.0773994
1.7774650 0.0180069 -0.0773994
4.1671862 0.0180069 -0.0773994
7.8050928 0.0180069 -0.0773994
12.8298333 0.0180069 -0.0773994
-0.0773994 0.4686024 -0.0773994
-0.0331712 0.4686024 -0.0773994
0.0180069 0.4686024 -0.0773994
0.4686024 0.4686024 -0.0773994
1.7774650 0.4686024 -0.0773994
4.1671862 0.4686024 -0.0773994
7.8050928 0.4686024 -0.0773994
12.8298333 0.4686024 -0.0773994
-0.0773994 1.7774650 -0.0773994
-0.0331712 1.7774650 -0.0773994
0.0180069 1.7774650 -0.0773994
0.4686024 1.7774650 -0.0773994
1.7774650 1.7774650 -0.0773994
4.1671862 1.7774650 -0.0773994
7.8050928 1.7774650 -0.0773994
12.8298333 1.7774650 -0.0773994
-0.0773994 4.1671862 -0.0773994
-0.0331712 4.1671862 -0.0773994
0.0180069 4.1671862 -0.0773994
0.4686024 4.1671862 -0.0773994
1.7774650 4.1671862 -0.0773994
4.1671862 4.1671862 -0.0773994
7.8050928 4.1671862 -0.0773994
12.8298333 4.1671862 -0.0773994
-0.0773994 7.8050928 -0.0773994
-0.0331712 7.8050928 -0.0773994
0.0180069 7.8050928 -0.0773994
0.4686024 7.8050928 -0.0773994
1.7774650 7.8050928 -0.0773994
4.1671862 7.8050928 -0.0773994
7.8050928 7.8050928 -0.0773994
12.8298333 7.8050928 -0.0773994
-0.0773994 12.8298333 -0.0773994
-0.0331712 12.8298333 -0.0773994
0.0180069 12.8298333 -0.0773994
0.4686024 12.8298333 -0.0773994
1.7774650 12.8298333 -0.0773994
4.1671862 12.8298333 -0.0773994
7.8050928 12.8298333 -0.0773994
12.8298333 12.8298333 -0.0773994
-0.0773994 -0.0773994 -0.0331712
-0.0331712 -0.0773994 -0.0331712
0.0180069 -0.0773994 -0.0331712
0.4686024 -0.0773994 -0.0331712
1.7774650 -0.0773994 -0.0331712
4.1671862 -0.0773994 -0.0331712
7.8050928 -0.0773994 -0.0331712
12.8298333 -0.0773994 -0.0331712
-0.0773994 -0.0331712 -0.0331712
-0.0331712 -0.0331712 -0.0331712
0.0180069 -0.0331712 -0.0331712
0.4686024 -0.0331712 -0.0331712
1.7774650 -0.0331712 -0.0331712
4.1671862 -0.0331712 -0.0331712
7.8050928 -0.0331712 -0.0331712
12.8298333 -0.0331712 -0.0331712
-0.0773994 0.0180069 -0.0331712
-0.0331712 0.0180069 -0.0331712
0.0180069 0.0180069 -0.0331712
0.4686024 0.0180069 -0.0331712
1.7774650 0.0180069 -0.0331712
4.1671862 0.0180069 -0.0331712
7.8050928 0.0180069 -0.0331712
12.8298333 0.0180069 -0.0331712
-0.0773994 0.4686024 -0.0331712
-0.0331712 0.4686024 -0.0331712
0.0180069 0.4686024 -0.0331712
0.4686024 0.4686024 -0.0331712
1.7774650 0.4686024 -0.0331712
4.1671862 0.4686024 -0.0331712
7.8050928 0.4686024 -0.0331712
12.8298333 0.4686024 -0.0331712
-0.0773994 1.7774650 -0.0331712
-0.0331712 1.7774650 -0.0331712
0.0180069 1.7774650 -0.0331712
0.4686024 1.7774650 -0.0331712
1.7774650 1.7774650 -0.0331712
4.1671862 1.7774650 -0.0331712
7.8050928 1.7774650 -0.0331712
12.8298333 1.7774650 -0.0331712
-0.0773994 4.1671862 -0.0331712
-0.0331712 4.1671862 -0.0331712
0.0180069 4.1671862 -0.0331712
0.4686024 4.1671862 -0.0331712
1.7774650 4.1671862 -0.0331712
4.1671862 4.1671862 -0.0331712
7.8050928 4.1671862 -0.0331712
12.8298333 4.1671862 -0.0331712
-0.0773994 7.8050928 -0.0331712
-0.0331712 7.8050928 -0.0331712
0.0180069 7.8050928 -0.0331712
0.4686024 7.8050928 -0.0331712
1.7774650 7.8050928 -0.0331712
4.1671862 7.8050928 -0.0331712
7.8050928 7.8050928 -0.0331712
12.8298333 7.8050928 -0.0331712
-0.0773994 12.8298333 -0.0331712
-0.0331712 12.8298333 -0.0331712
0.0180069 12.8298333 -0.0331712
0.4686024 12.8298333 -0.0331712
1.7774650 12.8298333 -0.0331712
4.1671862 12.8298333 -0.0331712
7.8050928 12.8298333 -0.0331712
12.8298333 12.8298333 -0.0331712
-0.0773994 -0.0773994 0.0180069
-0.0331712 -0.0773994 0.0180069
0.0180069 -0.0773994 0.0180069
0.4686024 -0.0773994 0.0180069
1.7774650 -0.0773994 0.0180069
4.1671862 -0.0773994 0.0180069
7.8050928 -0.0773994 0.0180069
12.8298333 -0.0773994 0.0180069
-0.0773994 -0.0331712 0.0180069
-0.0331712 -0.0331712 0.0180069
0.0180069 -0.0331712 0.0180069
0.4686024 -0.0331712 0.0180069
1.7774650 -0.0331712 0.0180069
4.1671862 -0.0331712 0.0180069
7.8050928 -0.0331712 0.0180069
12.8298333 -0.0331712 0.0180069
-0.0773994 0.0180069 0.0180069
-0.0331712 0.0180069 0.0180069
0.0180069 0.0180069 0.0180069
0.4686024 0.0180069 0.0180069
1.7774650 0.0180069 0.0180069
4.1671862 0.0180069 0.0180069
7.8050928 0.0180069 0.0180069
12.8298333 0.0180069 0.0180069
-0.0773994 0.4686024 0.0180069
-0.0331712 0.4686024 0.0180069
0.0180069 0.4686024 0.0180069
0.4686024 0.4686024 0.0180069
1.7774650 0.4686024 0.0180069
4.1671862 0.4686024 0.0180069
7.8050928 0.4686024 0.0180069
12.8298333 0.4686024 0.0180069
-0.0773994 1.7774650 0.0180069
-0.0331712 1.7774650 0.0180069
0.0180069 1.7774650 0.0180069
0.4686024 1.7774650 0.0180069
1.7774650 1.7774650 0.0180069
4.1671862 1.7774650 0.0180069
7.8050928 1.7774650 0.0180069
12.8298333 1.7774650 0.0180069
-0.0773994 4.1671862 0.0180069
-0.0331712 4.1671862 0.0180069
0.0180069 4.1671862 0.0180069
0.4686024 4.1671862 0.0180069
1.7774650 4.1671862 0.0180069
4.1671862 4.1671862 0.0180069
7.8050928 4.1671862 0.0180069
12.8298333 4.1671862 0.0180069
-0.0773994 7.8050928 0.0180069
-0.0331712 7.8050928 0.0180069
0.0180069 7.8050928 0.0180069
0.4686024 7.8050928 0.0180069
1.7774650 7.8050928 0.0180069
4.1671862 7.8050928 0.0180069
7.8050928 7.8050928 0.0180069
12.8298333 7.8050928 0.0180069
-0.0773994 12.8298333 0.0180069
-0.0331712 12.8298333 0.0180069
0.0180069 12.8298333 0.0180069
0.4686024 12.8298333 0.0180069
1.7774650 12.8298333 0.0180069
4.1671862 12.8298333 0.0180069
7.8050928 12.8298333 0.0180069
12.8298333 12.8298333 0.0180069
-0.0773994 -0.0773994 0.4686024
-0.0331712 -0.0773994 0.4686024
0.0180069 -0.0773994 0.4686024
0.4686024 -0.0773994 0.4686024
1.7774650 -0.0773994 0.4686024
4.1671862 -0.0773994 0.4686024
7.8050928 -0.0773994 0.4686024
12.8298333 -0.0773994 0.4686024
-0.0773994 -0.0331712 0.4686024
-0.0331712 -0.0331712 0.4686024
0.0180069 -0.0331712 0.4686024
0.4686024 -0.0331712 0.4686024
1.7774650 -0.0331712 0.4686024
4.1671862 -0.0331712 0.4686024
7.8050928 -0.0331712 0.4686024
12.8298333 -0.0331712 0.4686024
-0.0773994 0.0180069 0.4686024
-0.0331712 0.0180069 0.4686024
0.0180069 0.0180069 0.4686024
0.4686024 0.0180069 0.4686024
1.7774650 0.0180069 0.4686024
4.1671862 0.0180069 0.4686024
7.8050928 0.0180069 0.4686024
12.8298333 0.0180069 0.4686024
-0.0773994 0.4686024 0.4686024
-0.0331712 0.4686024 0.4686024
0.0180069 0.4686024 0.4686024
0.4686024 0.4686024 0.4686024
1.7774650 0.4686024 0.4686024
4.1671862 0.4686024 0.4686024
7.8050928 0.4686024 0.4686024
12.8298333 0.4686024 0.4686024
-0.0773994 1.7774650 0.4686024
-0.0331712 1.7774650 0.4686024
0.0180069 1.7774650 0.4686024
0.4686024 1.7774650 0.4686024
1.7774650 1.7774650 0.4686024
4.1671862 1.7774650 0.4686024
7.8050928 1.7774650 0.4686024
12.8298333 1.7774650 0.4686024
-0.0773994 4.1671862 0.4686024
-0.0331712 4.1671862 0.4686024
0.0180069 4.1671862 0.4686024
0.4686024 4.1671862 0.4686024
1.7774650 4.1671862 0.4686024
4.1671862 4.1671862 0.4686024
7.8050928 4.1671862 0.4686024
12.8298333 4.1671862 0.4686024
-0.0773994 7.8050928 0.4686024
-0.0331712 7.8050928 0.4686024
0.0180069 7.8050928 0.4686024
0.4686024 7.8050928 0.4686024
1.7774650 7.8050928 0.4686024
4.1671862 7.8050928 0.4686024
7.8050928 7.8050928 0.4686024
12.8298333 7.8050928 0.4686024
-0.0773994 12.8298333 0.4686024
-0.0331712 12.8298333 0.4686024
0.0180069 12.8298333 0.4686024
0.4686024 12.8298333 0.4686024
1.7774650 12.8298333 0.4686024
4.1671862 12.8298333 0.4686024
7.8050928 12.8298333 0.4686024
12.8298333 12.8298333 0.4686024
-0.0773994 -0.0773994 1.7774650
-0.0331712 -0.0773994 1.7774650
0.0180069 -0.0773994 1.7774650
0.4686024 -0.0773994 1.7774650
1.7774650 -0.0773994 1.7774650
4.1671862 -0.0773994 1.7774650
7.8050928 -0.0773994 1.7774650
12.8298333 -0.0773994 1.7774650
-0.0773994 -0.0331712 1.7774650
-0.0331712 -0.0331712 1.7774650
0.0180069 -0.0331712 1.7774650
0.4686024 -0.0331712 1.7774650
1.7774650 -0.0331712 1.7774650
4.1671862 -0.0331712 1.7774650
7.8050928 -0.0331712 1.7774650
12.8298333 -0.0331712 1.7774650
-0.0773994 0.0180069 1.7774650
-0.0331712 0.0180069 1.7774650
0.0180069 0.0180069 1.7774650
0.4686024 0.0180069 1.7774650
1.7774650 0.0180069 1.7774650
4.1671862 0.0180069 1.7774650
7.8050928 0.0180069 1.7774650
12.8298333 0.0180069 1.7774650
-0.0773994 0.4686024 1.7774650
-0.0331712 0.4686024 1.7774650
0.0180069 0.4686024 1.7774650
0.4686024 0.4686024 1.7774650
1.7774650 0.4686024 1.7774650
4.1671862 0.4686024 1.7774650
7.8050928 0.4686024 1.7774650
12.8298333 0.4686024 1.7774650
-0.0773994 1.7774650 1.7774650
-0.0331712 1.7774650 1.7774650
0.0180069 1.7774650 1.7774650
0.4686024 1.7774650 1.7774650
1.7774650 1.7774650 1.7774650
4.1671862 1.7774650 1.7774650
7.8050928 1.7774650 1.7774650
12.8298333 1.7774650 1.7774650
-0.0773994 4.1671862 1.7774650
-0.0331712 4.1671862 1.7774650
0.0180069 4.1671862 1.7774650
0.4686024 4.1671862 1.7774650
1.7774650 4.1671862 1.7774650
4.1671862 4.1671862 1.7774650
7.8050928 4.1671862 1.7774650
12.8298333 4.1671862 1.7774650
-0.0773994 7.8050928 1.7774650
-0.0331712 7.8050928 1.7774650
0.0180069 7.8050928 1.7774650
0.4686024 7.8050928 1.7774650
1.7774650 7.8050928 1.7774650
4.1671862 7.8050928 1.7774650
7.8050928 7.8050928 1.7774650
12.8298333 7.8050928 1.7774650
-0.0773994 12.8298333 1.7774650
-0.0331712 12.8298333 1.7774650
0.0180069 12.8298333 1.7774650
0.4686024 12.8298333 1.7774650
1.7774650 12.8298333 1.7774650
4.1671862 12.8298333 1.7774650
7.8050928 12.8298333 1.7774650
12.8298333 12.8298333 1.7774650
-0.0773994 -0.0773994 4.1671862
-0.0331712 -0.0773994 4.1671862
0.0180069 -0.0773994 4.1671862
0.4686024 -0.0773994 4.1671862
1.7774650 -0.0773994 4.1671862
4.1671862 -0.0773994 4.1671862
7.8050928 -0.0773994 4.1671862
12.8298333 -0.0773994 4.1671862
-0.0773994 -0.0331712 4.1671862
-0.0331712 -0.0331712 4.1671862
0.0180069 -0.0331712 4.1671862
0.4686024 -0.0331712 4.1671862
1.7774650 -0.0331712 4.1671862
4.1671862 -0.0331712 4.1671862
7.8050928 -0.0331712 4.1671862
12.8298333 -0.0331712 4.1671862
-0.0773994 0.0180069 4.1671862
-0.0331712 0.0180069 4.1671862
0.0180069 0.0180069 4.1671862
0.4686024 0.0180069 4.1671862
1.7774650 0.0180069 4.1671862
4.1671862 0.0180069 4.1671862
7.8050928 0.0180069 4.1671862
12.8298333 0.0180069 4.1671862
-0.0773994 0.4686024 4.1671862
-0.0331712 0.4686024 4.1671862
0.0180069 0.4686024 4.1671862
0.4686024 0.4686024 4.1671862
1.7774650 0.4686024 4.1671862
4.1671862 0.4686024 4.1671862
7.8050928 0.4686024 4.1671862
12.8298333 0.4686024 4.1671862
-0.0773994 1.7774650 4.1671862
-0.0331712 1.7774650 4.1671862
0.0180069 1.7774650 4.1671862
0.4686024 1.7774650 4.1671862
1.7774650 1.7774650 4.1671862
4.1671862 1.7774650 4.1671862
7.8050928 1.7774650 4.1671862
12.8298333 1.7774650 4.1671862
-0.0773994 4.1671862 4.1671862
-0.0331712 4.1671862 4.1671862
0.0180069 4.1671862 4.1671862
0.4686024 4.1671862 4.1671862
1.7774650 4.1671862 4.1671862
4.1671862 4.1671862 4.1671862
7.8050928 4.1671862 4.1671862
12.8298333 4.1671862 4.1671862
-0.0773994 7.8050928 4.1671862
-0.0331712 7.8050928 4.1671862
0.0180069 7.8050928 4.1671862
0.4686024 7.8050928 4.1671862
1.7774650 7.8050928 4.1671862
4.1671862 7.8050928 4.1671862
7.8050928 7.8050928 4.1671862
12.8298333 7.8050928 4.1671862
-0.0773994 12.8298333 4.1671862
-0.0331712 12.8298333 4.1671862
0.0180069 12.8298333 4.1671862
0.4686024 12.8298333 4.1671862
1.7774650 12.8298333 4.1671862
4.1671862 12.8298333 4.1671862
7.8050928 12.8298333 4.1671862
12.8298333 12.8298333 4.1671862
-0.0773994 -0.0773994 7.8050928
-0.0331712 -0.0773994 7.8050928
0.0180069 -0.0773994 7.8050928
0.4686024 -0.0773994 7.8050928
1.7774650 -0.0773994 7.8050928
4.1671862 -0.0773994 7.8050928
7.8050928 -0.0773994 7.8050928
12.8298333 -0.0773994 7.8050928
-0.0773994 -0.0331712 7.8050928
-0.0331712 -0.0331712 7.8050928
0.0180069 -0.0331712 7.8050928
0.4686024 -0.0331712 7.8050928
1.7774650 -0.0331712 7.8050928
4.1671862 -0.0331712 7.8050928
7.8050928 -0.0331712 7.8050928
12.8298333 -0.0331712 7.8050928
-0.0773994 0.0180069 7.8050928
-0.0331712 0.0180069 7.8050928
0.0180069 0.0180069 7.8050928
0.4686024 0.0180069 7.8050928
1.7774650 0.0180069 7.8050928
4.1671862 0.0180069 7.8050928
7.8050928 0.0180069 7.8050928
12.8298333 0.0180069 7.8050928
-0.0773994 0.4686024 7.8050928
-0.0331712 0.4686024 7.8050928
0.0180069 0.4686024 7.8050928
0.4686024 0.4686024 7.8050928
1.7774650 0.4686024 7.8050928
4.1671862 0.4686024 7.8050928
7.8050928 0.4686024 7.8050928
12.8298333 0.4686024 7.8050928
-0.0773994 1.7774650 7.8050928
-0.0331712 1.7774650 7.8050928
0.0180069 1.7774650 7.8050928
0.4686024 1.7774650 7.8050928
1.7774650 1.7774650 7.8050928
4.1671862 1.7774650 7.8050928
7.8050928 1.7774650 7.8050928
12.8298333 1.7774650 7.8050928
-0.0773994 4.1671862 7.8050928
-0.0331712 4.1671862 7.8050928
0.0180069 4.1671862 7.8050928
0.4686024 4.1671862 7.8050928
1.7774650 4.1671862 7.8050928
4.1671862 4.1671862 7.8050928
7.8050928 4.1671862 7.8050928
12.8298333 4.1671862 7.8050928
-0.0773994 7.8050928 7.8050928
-0.0331712 7.8050928 7.8050928
0.0180069 7.8050928 7.8050928
0.4686024 7.8050928 7.8050928
1.7774650 7.8050928 7.8050928
4.1671862 7.8050928 7.8050928
7.8050928 7.8050928 7.8050928
12.8298333 7.8050928 7.8050928
-0.0773994 12.8298333 7.8050928
-0.0331712 12.8298333 7.8050928
0.0180069 12.8298333 7.8050928
0.4686024 12.8298333 7.8050928
1.7774650 12.8298333 7.8050928
4.1671862 12.8298333 7.8050928
7.8050928 12.8298333 7.8050928
12.8298333 12.8298333 7.8050928
-0.0773994 -0.0773994 12.8298333
-0.0331712 -0.0773994 12.8298333
0.0180069 -0.0773994 12.8298333
0.4686024 -0.0773994 12.8298333
1.7774650 -0.0773994 12.8298333
4.1671862 -0.0773994 12.8298333
7.8050928 -0.0773994 12.8298333
12.8298333 -0.0773994 12.8298333
-0.0773994 -0.0331712 12.8298333
-0.0331712 -0.0331712 12.8298333
0.0180069 -0.0331712 12.8298333
0.4686024 -0.0331712 12.8298333
1.7774650 -0.0331712 12.8298333
4.1671862 -0.0331712 12.8298333
7.8050928 -0.0331712 12.8298333
12.8298333 -0.0331712 12.8298333
-0.0773994 0.0180069 12.8298333
-0.0331712 0.0180069 12.8298333
0.0180069 0.0180069 12.8298333
0.4686024 0.0180069 12.8298333
1.7774650 0.0180069 12.8298333
4.1671862 0.0180069 12.8298333
7.8050928 0.0180069 12.8298333
12.8298333 0.0180069 12.8298333
-0.0773994 0.4686024 12.8298333
-0.0331712 0.4686024 12.8298333
0.0180069 0.4686024 12.8298333
0.4686024 0.4686024 12.8298333
1.7774650 0.4686024 12.8298333
4.1671862 0.4686024 12.8298333
7.8050928 0.4686024 12.8298333
12.8298333 0.4686024 12.8298333
-0.0773994 1.7774650 12.8298333
-0.0331712 1.7774650 12.8298333
0.0180069 1.7774650 12.8298333
0.4686024 1.7774650 12.8298333
1.7774650 1.7774650 12.8298333
4.1671862 1.7774650 12.8298333
7.8050928 1.7774650 12.8298333
12.8298333 1.7774650 12.8298333
-0.0773994 4.1671862 12.8298333
-0.0331712 4.1671862 12.8298333
0.0180069 4.1671862 12.8298333
0.4686024 4.1671862 12.8298333
1.7774650 4.1671862 12.8298333
4.1671862 4.1671862 12.8298333
7.8050928 4.1671862 12.8298333
12.8298333 4.1671862 12.8298333
-0.0773994 7.8050928 12.8298333
-0.0331712 7.8050928 12.8298333
0.0180069 7.8050928 12.8298333
0.4686024 7.8050928 12.8298333
1.7774650 7.8050928 12.8298333
4.1671862 7.8050928 12.8298333
7.8050928 7.8050928 12.8298333
12.8298333 7.8050928 12.8298333
-0.0773994 12.8298333 12.8298333
-0.0331712 12.8298333 12.8298333
0.0180069 12.8298333 12.8298333
0.4686024 12.8298333 12.8298333
1.7774650 12.8298333 12.8298333
4.1671862 12.8298333 12.8298333
7.8050928 12.8298333 12.8298333
12.8298333 12.8298333 12.8298333
