colour/io/luts/tests/resources/resolve_cube/LogC_Video.cube
TITLE "AlexaV3 K1S1 LogC to Video Rec709"
# Tonemap applied by 1D shaper
# Colour space transform applied by 3D cube
LUT_1D_SIZE 16
LUT_3D_SIZE 4
0.0000000 0.0000000 0.0000000
0.0270850 0.0270850 0.0270850
0.0630490 0.0630490 0.0630490
0.1131490 0.1131490 0.1131490
0.1830490 0.1830490 0.1830490
0.2898110 0.2898110 0.2898110
0.4173530 0.4173530 0.4173530
0.5452310 0.5452310 0.5452310
0.6702050 0.6702050 0.6702050
0.7896300 0.7896300 0.7896300
0.8864680 0.8864680 0.8864680
0.9454910 0.9454910 0.9454910
0.9764490 0.9764490 0.9764490
0.9892480 0.9892480 0.9892480
0.9937970 0.9937970 0.9937970
1.0000000 1.0000000 1.0000000

0.0000000 0.0000000 0.0000000
0.4005361 0.0000000 0.0101314
0.7859243 0.0000000 0.0482678
1.0000000 0.0000000 0.1110524
0.0000000 0.3745276 0.0000000
0.3457652 0.3699128 0.0000000
0.7671721 0.3517830 0.0000000
1.0000000 0.3082418 0.0146786
0.0000000 0.7397698 0.0000000
0.0000000 0.7380691 0.0000000
0.6892977 0.7316129 0.0000000
1.0000000 0.7175813 0.0000000
0.0000000 1.0000000 0.0000000
0.0000000 1.0000000 0.0000000
0.4512103 1.0000000 0.0000000
1.0000000 1.0000000 0.0000000
0.0000000 0.0000000 0.3503171
0.3899808 0.0000000 0.3519128
0.7820655 0.0000000 0.3578326
1.0000000 0.0000000 0.3700000
0.0000000 0.3383360 0.3315037
0.3327192 0.3330184 0.3332229
0.7631664 0.3118811 0.3395892
1.0000000 0.2589850 0.3526207
0.0000000 0.7270624 0.2424807
0.0000000 0.7253159 0.2450712
0.6845740 0.7186836 0.2545174
1.0000000 0.7042554 0.2732278
0.0000000 1.0000000 0.0000000
0.0000000 1.0000000 0.0000000
0.4422489 1.0000000 0.0000000
1.0000000 1.0000000 0.0000000
0.0000000 0.0000000 0.6968059
0.3461109 0.0000000 0.6973995
0.7672703 0.0000000 0.6996270
1.0000000 0.0000000 0.7043303
0.0000000 0.0851912 0.6900300
0.2757873 0.0724616 0.6906325
0.7477900 0.0259840 0.6928930
1.0000000 0.0000000 0.6976653
0.0000000 0.6758730 0.6635691
0.0000000 0.6739207 0.6642082
0.6663319 0.6664938 0.6666057
1.0000000 0.6502641 0.6716633
0.0000000 1.0000000 0.6012464
0.0000000 1.0000000 0.6019874
0.4058510 1.0000000 0.6047645
1.0000000 1.0000000 0.6106100
0.0000000 0.0000000 1.0000000
0.2102379 0.0000000 1.0000000
0.7342490 0.0000000 1.0000000
1.0000000 0.0000000 1.0000000
0.0000000 0.0000000 1.0000000
0.0612633 0.0000000 1.0000000
0.7133622 0.0000000 1.0000000
1.0000000 0.0000000 1.0000000
0.0000000 0.5411967 1.0000000
0.0000000 0.5384700 1.0000000
0.6247826 0.5280182 1.0000000
1.0000000 0.5047071 1.0000000
0.0000000 1.0000000 0.9956470
0.0000000 1.0000000 0.9959889
0.3061541 1.0000000 0.9972743
1.0000000 1.0000000 1.0000000
