colour/io/luts/tests/resources/resolve_cube/Three_Dimensional_Table_With_Shaper.cube
TITLE "LUT3D with My Shaper"
# A first "Shaper" comment.
# A second "Shaper" comment.
# A first "LUT3D" comment.
# A second "LUT3D" comment.
LUT_1D_SIZE 10
LUT_1D_INPUT_RANGE -0.1000000 3.0000000
LUT_3D_SIZE 3
LUT_3D_INPUT_RANGE -0.1000000 3.0000000
-0.3511192 -0.3511192 -0.3511192
0.5271086 0.5271086 0.5271086
0.7860854 0.7860854 0.7860854
0.9691262 0.9691262 0.9691262
1.1178635 1.1178635 1.1178635
1.2459617 1.2459617 1.2459617
1.3599219 1.3599219 1.3599219
1.4634339 1.4634339 1.4634339
1.5588269 1.5588269 1.5588269
1.6476816 1.6476816 1.6476816

0.9277778 0.9063014 0.9020062
1.4500000 -0.1000000 -0.1000000
3.0000000 -0.1000000 -0.1000000
0.4315560 0.4777778 0.4392596
1.4500000 1.4500000 -0.1000000
3.0000000 1.4500000 -0.1000000
1.9038580 2.0277778 1.9245113
1.4500000 3.0000000 -0.1000000
3.0000000 3.0000000 -0.1000000
0.4392596 0.4315560 0.4777778
1.4500000 -0.1000000 1.4500000
3.0000000 -0.1000000 1.4500000
0.4315560 0.4700741 0.4777778
1.4500000 1.4500000 1.4500000
3.0000000 1.4500000 1.4500000
1.9038580 2.0277778 1.9864712
1.4500000 3.0000000 1.4500000
3.0000000 3.0000000 1.4500000
1.9245113 1.9038580 2.0277778
1.4500000 -0.1000000 3.0000000
3.0000000 -0.1000000 3.0000000
1.9038580 1.9451646 2.0277778
1.4500000 1.4500000 3.0000000
3.0000000 1.4500000 3.0000000
1.9038580 2.0071245 2.0277778
1.4500000 3.0000000 3.0000000
3.0000000 3.0000000 3.0000000
