colour/io/luts/tests/resources/resolve_cube/Three_Dimensional_Table.cube
LUT_3D_SIZE 2
0 0 0
1 0 0
0 .75 0
1 .75 0
0 .25 1
1 .25 1
0 1 1
1 1 1